build/img/icon-education.svg

<svg width="17" height="15" viewBox="0 0 17 15" fill="none" xmlns="http://www.w3.org/2000/svg">
<path d="M1.44684 0.155151H16.0466C16.2617 0.155151 16.468 0.240606 16.6201 0.392716C16.7722 0.544826 16.8577 0.751131 16.8577 0.966248V13.9438C16.8577 14.1589 16.7722 14.3652 16.6201 14.5173C16.468 14.6694 16.2617 14.7549 16.0466 14.7549H1.44684C1.23172 14.7549 1.02542 14.6694 0.873307 14.5173C0.721197 14.3652 0.635742 14.1589 0.635742 13.9438V0.966248C0.635742 0.751131 0.721197 0.544826 0.873307 0.392716C1.02542 0.240606 1.23172 0.155151 1.44684 0.155151ZM4.69122 10.2939V7.04947L6.31342 8.67166L7.93561 7.04947V10.2939H9.5578V4.61618H7.93561L6.31342 6.23837L4.69122 4.61618H3.06903V10.2939H4.69122ZM13.6133 7.86057V4.61618H11.9911V7.86057H10.3689L12.8022 10.2939L15.2355 7.86057H13.6133Z" fill="#81A1C1"/>
</svg>

<svg width="17" height="15" fill="none" xmlns="http://www.w3.org/2000/svg"><path d="M1.447.155h14.6a.811.811 0 01.81.811v12.978a.811.811 0 01-.81.81h-14.6a.811.811 0 01-.811-.81V.966a.811.811 0 01.81-.81zM4.69 10.294V7.049l1.622 1.623 1.623-1.623v3.245h1.622V4.616H7.936L6.313 6.238 4.691 4.616H3.07v5.678h1.622zm8.922-2.433V4.616H11.99v3.245h-1.62l2.433 2.433 2.434-2.433h-1.623z" fill="#81A1C1"/></svg>
